assets/img/icons/s-twitter.svg

<svg width="25" height="25" viewBox="0 0 25 25" fill="none" xmlns="http://www.w3.org/2000/svg">
<path fill-rule="evenodd" clip-rule="evenodd" d="M12.5 0C5.59644 0 0 5.59644 0 12.5C0 19.4036 5.59644 25 12.5 25C19.4036 25 25 19.4036 25 12.5C25 5.59644 19.4036 0 12.5 0ZM12.1519 10.5927L12.1256 10.1602C12.0469 9.03911 12.7377 8.01517 13.8306 7.61795C14.2328 7.47672 14.9148 7.45906 15.3607 7.58264C15.5356 7.6356 15.8678 7.81215 16.1039 7.97103L16.5323 8.26233L17.0045 8.11227C17.2668 8.03282 17.6165 7.90042 17.7739 7.81215C17.9226 7.7327 18.0537 7.68857 18.0537 7.71505C18.0537 7.86511 17.7302 8.37708 17.4592 8.65955C17.0919 9.05677 17.1969 9.09208 17.94 8.82726C18.386 8.6772 18.3947 8.6772 18.3073 8.84492C18.2548 8.93319 17.9838 9.24214 17.6952 9.5246C17.2056 10.0101 17.1794 10.0631 17.1794 10.4691C17.1794 11.0958 16.8821 12.4022 16.5848 13.1172C16.034 14.459 14.8536 15.8448 13.6732 16.5422C12.012 17.522 9.79986 17.7691 7.93749 17.1954C7.31671 17.0012 6.25 16.5068 6.25 16.4186C6.25 16.3921 6.57351 16.3568 6.96697 16.348C7.78885 16.3303 8.61074 16.1008 9.31022 15.6948L9.78237 15.4123L9.24027 15.2269C8.47085 14.9621 7.78011 14.353 7.60524 13.7793C7.55278 13.5939 7.57027 13.5851 8.0599 13.5851L8.56703 13.5762L8.13859 13.3732C7.63147 13.1172 7.16807 12.6847 6.94074 12.2434C6.77461 11.9256 6.56477 11.1223 6.62597 11.0605C6.64346 11.034 6.82707 11.087 7.03691 11.1576C7.64021 11.3783 7.71891 11.3253 7.36917 10.9546C6.71341 10.2837 6.5123 9.28627 6.82707 8.34177L6.97571 7.91807L7.55278 8.49183C8.73315 9.64818 10.1234 10.3367 11.7147 10.5397L12.1519 10.5927Z" fill="#6FA2A7"/>
</svg>

<svg width="25" height="25" fill="none" xmlns="http://www.w3.org/2000/svg"><path fill-rule="evenodd" clip-rule="evenodd" d="M12.5 0C5.596 0 0 5.596 0 12.5S5.596 25 12.5 25 25 19.404 25 12.5 19.404 0 12.5 0Zm-.348 10.593-.026-.433c-.08-1.12.612-2.145 1.705-2.542.402-.141 1.084-.159 1.53-.035.175.053.507.23.743.388l.428.291.473-.15c.262-.08.611-.212.769-.3.149-.08.28-.123.28-.097 0 .15-.324.662-.595.945-.367.397-.262.432.481.167.446-.15.455-.15.367.018-.052.088-.323.397-.612.68-.49.485-.516.538-.516.944 0 .627-.297 1.933-.594 2.648-.551 1.342-1.731 2.728-2.912 3.425-1.661.98-3.873 1.227-5.736.653-.62-.194-1.687-.688-1.687-.776 0-.027.324-.062.717-.071a4.924 4.924 0 0 0 2.343-.653l.472-.283-.542-.185c-.77-.265-1.46-.874-1.635-1.448-.052-.185-.035-.194.455-.194l.507-.009-.428-.203c-.508-.256-.97-.688-1.198-1.13-.166-.317-.376-1.12-.315-1.183.017-.026.201.027.41.098.604.22.683.167.333-.203-.656-.671-.857-1.669-.542-2.613l.149-.424.577.574c1.18 1.156 2.57 1.845 4.162 2.048l.437.053Z" fill="#6FA2A7"/></svg>
